X:425
T:Long Odds
C:Preston Collection, 1791
S:Colin Hume's website,  colinhume.com  - chords can also be printed below the stave.
Q:1/2=116
M:2/2
L:1/4
K:A
P:A
|: "A"EA AB | "A"c2cA | "D"d2 dB | "A"cA "E7"GF |\
"A"EA AB | "A"cd "A7"ec | "D"fd "E7"BG | "A"A2 A2 :|
P:B
|: "D"fa gf | "A"e2e2 | "E7"df ed | "A"d2 c2 |\
"E7"Bc dB | "A"cd ec |1 "Bm"fd BA | "E"G2 FE :|2 "D"fd "E7"BG | "A"A2 A2 |]

